; generated by PrusaSlicer 2.0.0+ on 2019-09-04 at 20:22:24

; 

; external perimeters extrusion width = 0.60mm
; perimeters extrusion width = 0.50mm
; infill extrusion width = 0.50mm
; solid infill extrusion width = 0.50mm
; top infill extrusion width = 0.45mm
; first layer extrusion width = 0.42mm

M73 P0 R29
M73 Q0 S30
M201 X1000 Y1000 Z1000 E5000 ; sets maximum accelerations, mm/sec^2
M203 X200 Y200 Z12 E120 ; sets maximum feedrates, mm/sec
M204 P1250 R1250 T1250 ; sets acceleration (P, T) and retract acceleration (R), mm/sec^2
M205 X8.00 Y8.00 Z0.40 E1.50 ; sets the jerk limits, mm/sec
M205 S0 T0 ; sets the minimum extruding and travel feed rate, mm/sec
M107
M115 U3.7.2 ; tell printer latest fw version
G90 ; use absolute coordinates
M83 ; extruder relative mode
M104 S215 ; set extruder temp
M140 S60 ; set bed temp
M190 S60 ; wait for bed temp
M109 S215 ; wait for extruder temp
G28 W ; home all without mesh bed level
G80 ; mesh bed leveling
G1 Y-3.0 F1000.0 ; go outside print area
G92 E0.0
G1 X60.0 E9.0 F1000.0 ; intro line
M73 Q0 S30
M73 P0 R29
G1 X100.0 E12.5 F1000.0 ; intro line
G92 E0.0
M221 S95
M900 K30 ; Filament gcode
G21 ; set units to millimeters
G90 ; use absolute coordinates
M83 ; use relative distances for extrusion
;BEFORE_LAYER_CHANGE
G92 E0.0
;0.2


G1 E-0.80000 F2100.00000
G1 Z0.600 F10800.000
;AFTER_LAYER_CHANGE
;0.2
G1 X84.114 Y53.857
G1 Z0.200
G1 E0.80000 F2100.00000
M204 S1000
G1 F1200
G1 X84.980 Y53.669 E0.02777
G1 X165.004 Y53.669 E2.50909
G1 X165.518 Y53.731 E0.01623
G1 X166.003 Y53.913 E0.01623
G1 X166.432 Y54.203 E0.01623
G1 X166.780 Y54.585 E0.01623
G1 X189.786 Y88.379 E1.28180
G1 X190.479 Y89.594 E0.04386
G1 X191.026 Y90.752 E0.04015
G1 X191.538 Y92.129 E0.04606
G1 X191.901 Y93.549 E0.04596
G1 X192.089 Y94.788 E0.03930
G1 X192.146 Y96.043 E0.03939
G1 X192.051 Y97.518 E0.04634
G1 X191.794 Y98.879 E0.04342
G1 X191.380 Y100.223 E0.04409
G1 X190.823 Y101.525 E0.04442
G1 X177.326 Y126.237 E0.88285
G1 X174.963 Y129.972 E0.13857
G1 X172.871 Y132.850 E0.11155
G1 X170.602 Y135.614 E0.11213
G1 X168.226 Y138.183 E0.10972
G1 X165.565 Y140.740 E0.11571
G1 X162.903 Y143.010 E0.10969
G1 X160.063 Y145.159 E0.11167
G1 X157.104 Y147.135 E0.11155
G1 X154.085 Y148.905 E0.10972
G1 X150.797 Y150.579 E0.11571
G1 X147.591 Y151.980 E0.10969
G1 X144.249 Y153.212 E0.11167
G1 X140.845 Y154.244 E0.11156
G1 X137.442 Y155.062 E0.10972
G1 X133.809 Y155.710 E0.11571
G1 X130.335 Y156.120 E0.10969
G1 X126.783 Y156.330 E0.11155
G1 X123.222 Y156.330 E0.11167
G1 X119.728 Y156.125 E0.10972
G1 X116.063 Y155.691 E0.11571
G1 X112.620 Y155.076 E0.10969
G1 X109.160 Y154.245 E0.11155
G1 X105.752 Y153.212 E0.11167
G1 X102.468 Y152.002 E0.10972
G1 X99.087 Y150.524 E0.11571
G1 X95.970 Y148.936 E0.10969
G1 X92.900 Y147.137 E0.11156
G1 X89.938 Y145.160 E0.11167
G1 X87.146 Y143.049 E0.10972
G1 X84.367 Y140.679 E0.11453
G1 X81.774 Y138.183 E0.11284
G1 X79.399 Y135.614 E0.10969
G1 X77.170 Y132.902 E0.11007
G1 X75.038 Y129.972 E0.11362
G1 X72.701 Y126.282 E0.13695
G1 X59.179 Y101.529 E0.88437
G1 X58.621 Y100.226 E0.04445
G1 X58.208 Y98.887 E0.04392
G1 X57.951 Y97.530 E0.04332
G1 X57.852 Y96.152 E0.04332
G1 X57.925 Y94.676 E0.04632
G1 X58.121 Y93.431 E0.03953
G1 X58.459 Y92.140 E0.04182
G1 X58.972 Y90.756 E0.04631
G1 X59.519 Y89.597 E0.04017
G1 X60.189 Y88.420 E0.04248
G1 X83.394 Y54.372 E1.29190
G1 X84.065 Y53.891 E0.02589
G1 F8640
G1 X84.980 Y53.669 E-0.21728
G1 X87.330 Y53.669 E-0.54272
G1 E-0.04000 F2100.00000
G1 Z0.800 F10800.000
G1 X85.461 Y56.542
G1 Z0.200
G1 E0.80000 F2100.00000
G1 F1200
G1 X87.258 Y56.881 E0.05732
G1 X86.692 Y59.601 E0.08710
G1 X86.112 Y61.996 E0.07728
G1 X85.491 Y64.223 E0.07249
G1 X84.827 Y66.290 E0.06807
G1 X84.120 Y68.204 E0.06398
G1 X83.370 Y69.973 E0.06025
G1 X82.576 Y71.605 E0.05690
G1 X81.738 Y73.107 E0.05393
G1 X80.855 Y74.488 E0.05140
G1 X79.988 Y75.678 E0.04616
G1 X79.090 Y76.777 E0.04449
G1 X78.166 Y77.793 E0.04308
G1 X77.221 Y78.739 E0.04190
G1 X76.262 Y79.623 E0.04091
G1 X75.295 Y80.454 E0.03997
G1 X73.347 Y82.010 E0.07818
G1 X70.118 Y84.519 E0.12820
G1 X68.585 Y85.795 E0.06255
G1 X67.140 Y87.126 E0.06159
G1 X65.807 Y88.550 E0.06115
G1 X64.651 Y90.026 E0.05880
G1 X64.143 Y90.788 E0.02870
G1 X63.697 Y91.549 E0.02767
G1 X63.313 Y92.314 E0.02682
G1 X62.996 Y93.084 E0.02611
G1 X62.650 Y94.241 E0.03788
G1 X62.472 Y95.384 E0.03626
G1 X62.468 Y96.515 E0.03545
G1 X62.638 Y97.637 E0.03561
G1 X62.968 Y98.711 E0.03522
G1 X63.469 Y99.807 E0.03780
G1 X64.139 Y100.933 E0.04109
G1 X64.978 Y102.098 E0.04501
G1 X66.055 Y103.398 E0.05291
G1 X68.501 Y106.170 E0.11590
G1 X69.736 Y107.661 E0.06072
G1 X70.716 Y108.980 E0.05153
G1 X71.609 Y110.343 E0.05109
G1 X72.406 Y111.732 E0.05020
G1 X73.095 Y113.131 E0.04891
G1 X73.570 Y114.257 E0.03832
G1 X73.983 Y115.373 E0.03731
G1 X74.344 Y116.468 E0.03614
G1 X74.660 Y117.530 E0.03475
G1 X75.672 Y121.305 E0.12254
G1 X75.978 Y122.293 E0.03242
G1 X76.299 Y123.151 E0.02872
G1 X76.639 Y123.890 E0.02552
G1 X76.995 Y124.500 E0.02213
G1 X78.861 Y127.412 E0.10844
G1 X80.859 Y130.152 E0.10634
G1 X83.020 Y132.766 E0.10634
G1 X85.336 Y135.244 E0.10634
G1 X87.798 Y137.577 E0.10634
G1 X90.397 Y139.756 E0.10634
G1 X93.123 Y141.774 E0.10634
G1 X95.966 Y143.623 E0.10634
G1 X98.916 Y145.296 E0.10634
G1 X101.963 Y146.787 E0.10634
G1 X105.094 Y148.090 E0.10634
G1 X108.298 Y149.201 E0.10634
G1 X111.532 Y150.107 E0.10528
G1 X114.880 Y150.831 E0.10739
G1 X118.232 Y151.344 E0.10635
G1 X121.610 Y151.652 E0.10634
G1 X125.000 Y151.755 E0.10634
G1 X128.390 Y151.652 E0.10634
G1 X131.734 Y151.347 E0.10528
G1 X135.120 Y150.831 E0.10739
G1 X138.436 Y150.116 E0.10635
G1 X141.702 Y149.201 E0.10634
G1 X144.906 Y148.090 E0.10634
G1 X148.037 Y146.787 E0.10634
G1 X151.084 Y145.296 E0.10634
G1 X154.034 Y143.623 E0.10634
G1 X156.877 Y141.774 E0.10634
G1 X159.603 Y139.756 E0.10634
G1 X162.202 Y137.577 E0.10634
G1 X164.664 Y135.244 E0.10634
G1 X166.980 Y132.766 E0.10634
G1 X169.141 Y130.152 E0.10634
G1 X171.139 Y127.412 E0.10634
G1 X173.005 Y124.500 E0.10844
G1 X173.361 Y123.890 E0.02213
G1 X173.701 Y123.151 E0.02552
G1 X174.022 Y122.293 E0.02872
G1 X174.328 Y121.305 E0.03242
G1 X175.340 Y117.530 E0.12254
G1 X175.656 Y116.468 E0.03475
G1 X176.017 Y115.373 E0.03614
G1 X176.430 Y114.257 E0.03731
G1 X176.905 Y113.131 E0.03832
G1 X177.594 Y111.732 E0.04891
G1 X178.391 Y110.343 E0.05020
G1 X179.284 Y108.980 E0.05109
G1 X180.264 Y107.661 E0.05153
G1 X181.499 Y106.170 E0.06072
G1 X183.945 Y103.398 E0.11590
G1 X185.022 Y102.098 E0.05291
G1 X185.861 Y100.933 E0.04501
G1 X186.531 Y99.807 E0.04109
G1 X187.032 Y98.711 E0.03780
G1 X187.362 Y97.637 E0.03522
G1 X187.532 Y96.515 E0.03561
G1 X187.528 Y95.384 E0.03545
G1 X187.350 Y94.241 E0.03626
G1 X187.004 Y93.084 E0.03788
G1 X186.687 Y92.314 E0.02611
G1 X186.303 Y91.549 E0.02682
G1 X185.857 Y90.788 E0.02767
G1 X185.349 Y90.026 E0.02870
G1 X184.193 Y88.550 E0.05880
G1 X182.860 Y87.126 E0.06115
G1 X181.415 Y85.795 E0.06159
G1 X179.882 Y84.519 E0.06255
G1 X176.653 Y82.010 E0.12820
G1 X174.705 Y80.454 E0.07818
G1 X173.738 Y79.623 E0.03997
G1 X172.779 Y78.739 E0.04091
G1 X171.834 Y77.793 E0.04190
G1 X170.910 Y76.777 E0.04308
G1 X170.012 Y75.678 E0.04449
G1 X169.145 Y74.488 E0.04616
G1 X168.262 Y73.107 E0.05140
G1 X167.424 Y71.605 E0.05393
G1 X166.630 Y69.973 E0.05690
G1 X165.880 Y68.204 E0.06025
G1 X165.173 Y66.290 E0.06398
G1 X164.509 Y64.223 E0.06807
G1 X163.888 Y61.996 E0.07249
G1 X163.308 Y59.601 E0.07728
G1 X162.742 Y56.881 E0.08710
G1 X164.539 Y56.542 E0.05732
G1 X164.904 Y58.358 E0.05807
G1 X165.427 Y60.639 E0.07337
G1 X165.977 Y62.740 E0.06811
G1 X166.560 Y64.691 E0.06382
G1 X167.176 Y66.496 E0.05979
G1 X167.824 Y68.162 E0.05606
G1 X168.507 Y69.697 E0.05267
G1 X169.222 Y71.109 E0.04964
G1 X169.971 Y72.407 E0.04699
G1 X170.751 Y73.601 E0.04473
G1 X171.563 Y74.701 E0.04285
G1 X172.403 Y75.717 E0.04134
G1 X173.270 Y76.660 E0.04016
G1 X174.165 Y77.544 E0.03943
G1 X176.002 Y79.160 E0.07671
G1 X179.813 Y82.137 E0.15166
G1 X181.719 Y83.655 E0.07638
G1 X183.562 Y85.271 E0.07687
G1 X184.436 Y86.121 E0.03822
G1 X185.273 Y87.008 E0.03824
G1 X186.060 Y87.930 E0.03800
G1 X186.787 Y88.885 E0.03762
G1 X187.443 Y89.869 E0.03708
G1 X188.018 Y90.878 E0.03641
G1 X188.502 Y91.907 E0.03566
G1 X188.886 Y92.950 E0.03487
G1 X189.163 Y94.003 E0.03414
G1 X189.326 Y95.061 E0.03354
G1 X189.372 Y96.118 E0.03319
G1 X189.296 Y97.173 E0.03315
G1 X189.097 Y98.223 E0.03350
G1 X188.774 Y99.267 E0.03426
G1 X188.330 Y100.304 E0.03539
G1 X187.769 Y101.335 E0.03679
G1 X187.100 Y102.358 E0.03833
G1 X186.342 Y103.373 E0.03973
G1 X184.611 Y105.412 E0.08385
G1 X182.792 Y107.467 E0.08605
G1 X181.911 Y108.523 E0.04312
G1 X181.082 Y109.599 E0.04259
G1 X180.319 Y110.696 E0.04189
G1 X179.631 Y111.811 E0.04107
G1 X179.020 Y112.938 E0.04022
G1 X178.484 Y114.073 E0.03935
G1 X178.018 Y115.208 E0.03847
G1 X177.612 Y116.340 E0.03769
G1 X176.954 Y118.535 E0.07185
G1 X176.409 Y120.611 E0.06731
G1 X175.874 Y122.507 E0.06175
G1 X175.584 Y123.359 E0.02824
G1 X175.263 Y124.150 E0.02676
G1 X174.907 Y124.874 E0.02530
G1 X174.501 Y125.548 E0.02466
G1 X172.663 Y128.417 E0.10683
G1 X170.665 Y131.165 E0.10655
G1 X168.508 Y133.791 E0.10655
G1 X166.200 Y136.286 E0.10655
G1 X163.750 Y138.640 E0.10655
G1 X161.165 Y140.846 E0.10655
G1 X158.482 Y142.876 E0.10547
G1 X155.629 Y144.783 E0.10762
G1 X152.697 Y146.501 E0.10654
G1 X149.669 Y148.043 E0.10655
G1 X146.556 Y149.404 E0.10655
G1 X143.367 Y150.580 E0.10655
G1 X140.115 Y151.566 E0.10655
G1 X136.811 Y152.359 E0.10655
G1 X133.466 Y152.956 E0.10655
G1 X130.091 Y153.355 E0.10655
G1 X126.699 Y153.555 E0.10655
G1 X123.301 Y153.555 E0.10655
G1 X119.909 Y153.355 E0.10655
G1 X116.534 Y152.956 E0.10655
G1 X113.189 Y152.359 E0.10655
G1 X109.885 Y151.566 E0.10655
G1 X106.633 Y150.580 E0.10655
G1 X103.444 Y149.404 E0.10655
G1 X100.331 Y148.043 E0.10655
G1 X97.303 Y146.501 E0.10655
G1 X94.371 Y144.783 E0.10655
G1 X91.573 Y142.915 E0.10547
G1 X88.835 Y140.846 E0.10762
G1 X86.250 Y138.640 E0.10654
G1 X83.800 Y136.286 E0.10655
G1 X81.492 Y133.791 E0.10655
G1 X79.335 Y131.165 E0.10655
G1 X77.337 Y128.417 E0.10655
G1 X75.499 Y125.548 E0.10683
G1 X75.093 Y124.874 E0.02466
G1 X74.737 Y124.150 E0.02530
G1 X74.416 Y123.359 E0.02676
G1 X74.126 Y122.506 E0.02824
G1 X73.591 Y120.611 E0.06175
G1 X73.046 Y118.535 E0.06731
G1 X72.388 Y116.340 E0.07185
G1 X71.982 Y115.208 E0.03769
G1 X71.516 Y114.073 E0.03847
G1 X70.980 Y112.938 E0.03935
G1 X70.369 Y111.811 E0.04022
G1 X69.681 Y110.696 E0.04107
G1 X68.918 Y109.599 E0.04189
G1 X68.089 Y108.523 E0.04259
G1 X67.208 Y107.467 E0.04312
G1 X65.389 Y105.412 E0.08605
G1 X63.658 Y103.373 E0.08385
G1 X62.900 Y102.358 E0.03973
G1 X62.231 Y101.335 E0.03833
G1 X61.670 Y100.304 E0.03679
G1 X61.226 Y99.267 E0.03539
G1 X60.903 Y98.223 E0.03426
G1 X60.704 Y97.173 E0.03350
G1 X60.628 Y96.118 E0.03315
G1 X60.674 Y95.061 E0.03319
G1 X60.837 Y94.003 E0.03354
G1 X61.114 Y92.950 E0.03414
G1 X61.498 Y91.907 E0.03487
G1 X61.982 Y90.878 E0.03566
G1 X62.557 Y89.869 E0.03641
G1 X63.213 Y88.885 E0.03708
G1 X63.940 Y87.930 E0.03762
G1 X64.727 Y87.008 E0.03800
G1 X65.564 Y86.121 E0.03824
G1 X66.438 Y85.271 E0.03822
G1 X68.281 Y83.655 E0.07687
G1 X70.187 Y82.137 E0.07638
G1 X73.998 Y79.160 E0.15166
G1 X75.835 Y77.544 E0.07671
G1 X76.730 Y76.660 E0.03943
G1 X77.597 Y75.717 E0.04016
G1 X78.437 Y74.701 E0.04134
G1 X79.249 Y73.601 E0.04285
G1 X80.029 Y72.407 E0.04473
G1 X80.778 Y71.109 E0.04699
G1 X81.493 Y69.697 E0.04964
G1 X82.176 Y68.162 E0.05267
G1 X82.824 Y66.496 E0.05606
G1 X83.440 Y64.691 E0.05979
G1 X84.023 Y62.740 E0.06382
G1 X84.573 Y60.639 E0.06811
G1 X85.091 Y58.382 E0.07260
G1 X85.449 Y56.601 E0.05696
G1 X85.165 Y56.103 F10800.000
G1 F1200
G1 X87.701 Y56.581 E0.08092
G1 X87.409 Y58.065 E0.04743
G1 X87.060 Y59.685 E0.05195
G1 X86.477 Y62.091 E0.07764
G1 X85.852 Y64.331 E0.07292
G1 X85.183 Y66.413 E0.06855
G1 X84.471 Y68.343 E0.06452
G1 X83.713 Y70.130 E0.06084
G1 X82.910 Y71.780 E0.05753
G1 X82.062 Y73.301 E0.05462
G1 X81.166 Y74.701 E0.05211
G1 X80.287 Y75.909 E0.04684
G1 X79.376 Y77.023 E0.04513
G1 X78.439 Y78.054 E0.04367
G1 X77.482 Y79.011 E0.04242
G1 X76.513 Y79.904 E0.04135
G1 X75.536 Y80.744 E0.04039
G1 X73.580 Y82.306 E0.07847
G1 X70.355 Y84.813 E0.12809
G1 X68.833 Y86.079 E0.06205
G1 X67.406 Y87.394 E0.06086
G1 X66.094 Y88.795 E0.06019
G1 X64.957 Y90.247 E0.05782
G1 X64.463 Y90.988 E0.02790
G1 X64.029 Y91.729 E0.02694
G1 X63.657 Y92.470 E0.02600
G1 X63.352 Y93.210 E0.02508
G1 X63.019 Y94.324 E0.03648
G1 X62.849 Y95.414 E0.03457
G1 X62.845 Y96.487 E0.03364
G1 X63.007 Y97.553 E0.03382
G1 X63.321 Y98.577 E0.03357
G1 X63.804 Y99.632 E0.03638
G1 X64.455 Y100.726 E0.03993
G1 X65.277 Y101.868 E0.04409
G1 X66.341 Y103.153 E0.05233
G1 X68.787 Y105.924 E0.11590
G1 X70.033 Y107.428 E0.06122
G1 X71.025 Y108.764 E0.05219
G1 X71.931 Y110.146 E0.05179
G1 X72.739 Y111.554 E0.05093
G1 X73.438 Y112.975 E0.04963
G1 X73.920 Y114.118 E0.03892
G1 X74.339 Y115.249 E0.03779
G1 X74.704 Y116.355 E0.03653
G1 X75.023 Y117.428 E0.03509
G1 X76.034 Y121.200 E0.12246
G1 X76.335 Y122.171 E0.03186
G1 X76.647 Y123.006 E0.02795
G1 X76.974 Y123.716 E0.02451
G1 X77.316 Y124.303 E0.02131
G1 X79.172 Y127.199 E0.10784
G1 X81.157 Y129.920 E0.10562
G1 X83.304 Y132.516 E0.10562
G1 X85.604 Y134.978 E0.10562
G1 X88.049 Y137.295 E0.10562
G1 X90.630 Y139.460 E0.10562
G1 X93.338 Y141.464 E0.10562
G1 X96.162 Y143.300 E0.10562
G1 X99.092 Y144.962 E0.10562
G1 X102.118 Y146.443 E0.10562
G1 X105.228 Y147.738 E0.10562
G1 X108.411 Y148.841 E0.10562
G1 X111.623 Y149.741 E0.10457
G1 X114.948 Y150.460 E0.10667
G1 X118.278 Y150.969 E0.10563
G1 X121.633 Y151.275 E0.10562
G1 X125.000 Y151.377 E0.10562
G1 X128.367 Y151.275 E0.10562
G1 X131.688 Y150.972 E0.10457
G1 X135.052 Y150.460 E0.10667
G1 X138.345 Y149.750 E0.10563
G1 X141.589 Y148.841 E0.10562
G1 X144.772 Y147.738 E0.10562
G1 X147.882 Y146.443 E0.10562
G1 X150.908 Y144.962 E0.10562
G1 X153.838 Y143.300 E0.10562
G1 X156.662 Y141.464 E0.10562
G1 X159.370 Y139.460 E0.10562
G1 X161.951 Y137.295 E0.10562
G1 X164.396 Y134.978 E0.10562
G1 X166.696 Y132.516 E0.10562
M73 Q3 S29
G1 X168.843 Y129.920 E0.10562
M73 P3 R28
G1 X170.828 Y127.199 E0.10562
G1 X172.684 Y124.303 E0.10784
G1 X173.026 Y123.716 E0.02131
G1 X173.353 Y123.006 E0.02451
G1 X173.665 Y122.171 E0.02795
G1 X173.966 Y121.200 E0.03186
G1 X174.977 Y117.428 E0.12246
G1 X175.296 Y116.355 E0.03509
G1 X175.661 Y115.249 E0.03653
G1 X176.080 Y114.118 E0.03779
G1 X176.562 Y112.975 E0.03892
G1 X177.261 Y111.554 E0.04963
G1 X178.069 Y110.146 E0.05093
G1 X178.975 Y108.764 E0.05179
G1 X179.967 Y107.428 E0.05219
G1 X181.213 Y105.924 E0.06122
G1 X183.659 Y103.153 E0.11590
G1 X184.723 Y101.868 E0.05233
G1 X185.545 Y100.726 E0.04409
G1 X186.196 Y99.632 E0.03993
G1 X186.679 Y98.577 E0.03638
G1 X186.993 Y97.553 E0.03357
G1 X187.155 Y96.487 E0.03382
G1 X187.151 Y95.414 E0.03364
G1 X186.981 Y94.324 E0.03457
G1 X186.648 Y93.210 E0.03648
G1 X186.343 Y92.470 E0.02508
G1 X185.971 Y91.729 E0.02600
G1 X185.537 Y90.988 E0.02694
G1 X185.043 Y90.247 E0.02790
G1 X183.906 Y88.795 E0.05782
G1 X182.594 Y87.394 E0.06019
G1 X181.167 Y86.079 E0.06086
G1 X179.645 Y84.813 E0.06205
G1 X176.420 Y82.306 E0.12809
G1 X174.464 Y80.744 E0.07847
G1 X173.487 Y79.904 E0.04039
G1 X172.518 Y79.011 E0.04135
G1 X171.561 Y78.054 E0.04242
G1 X170.624 Y77.023 E0.04367
G1 X169.713 Y75.909 E0.04513
G1 X168.834 Y74.701 E0.04684
G1 X167.938 Y73.301 E0.05211
G1 X167.090 Y71.780 E0.05462
G1 X166.287 Y70.130 E0.05754
G1 X165.529 Y68.343 E0.06084
G1 X164.817 Y66.413 E0.06452
G1 X164.148 Y64.331 E0.06855
G1 X163.523 Y62.091 E0.07292
G1 X162.940 Y59.685 E0.07764
G1 X162.591 Y58.065 E0.05195
G1 X162.299 Y56.581 E0.04743
G1 X164.835 Y56.103 E0.08092
G1 X165.273 Y58.278 E0.06959
G1 X165.793 Y60.549 E0.07303
G1 X166.340 Y62.638 E0.06773
G1 X166.919 Y64.576 E0.06340
G1 X167.530 Y66.366 E0.05931
G1 X168.173 Y68.017 E0.05553
G1 X168.847 Y69.535 E0.05209
G1 X169.554 Y70.929 E0.04902
G1 X170.292 Y72.210 E0.04634
G1 X171.061 Y73.386 E0.04407
G1 X171.860 Y74.469 E0.04219
G1 X172.687 Y75.469 E0.04070
G1 X173.542 Y76.398 E0.03956
G1 X174.422 Y77.268 E0.03880
G1 X176.242 Y78.869 E0.07603
